X:1
T:Fra questi sassi
T:Luca Marenzio
T:Source : Il primo  libro delle Villanelle a tre voci---Venetia---G.Vincenzi---1586. Editor : André Vierendeels (21/05/17).
T:Notes : Original clefs : C1, C2, F4 Editorial accidentals above the staff "Terza impressione"
T:Fra questi sassi
T:©
T:©
C:Luca Marenzio
Z:©
%%score [ 1 2 3 ]
L:1/8
Q:1/4=120
M:4/4
K:F
V:1 treble nm="Soprano 1" snm="S 1"
V:2 treble nm="Soprano 2" snm="S 2"
V:3 bass nm="Bass" snm="B"
V:1
"^1)" G4 G4- | G2 G2 G4 | G2 A4 B2 | c6 d2 | d8 | c8 :: A2 AB c2 d2 | c3 c c2 B2 | A4 A4 | %9
w: Fra que-|* sti sas-|si'e luo- ghi'as-|pri'e sel-|vag-|gi,|o- ve del Sol non|pon- no'en- tra- r'i|rag- gi,|
w: Poi che|_ son so-|lo'e tu cru-|del non|sen-|ti|il pian- ger me- sto'e'i|du- ri miei la-|men- ti,|
 B2 c4 d2 | _e4 d4 | d3 c B4 | A2 d4 ^c2 | d8 | z4 c4 | c6 A2 | G8 | F8 :| %18
w: a quer- ci|fag- gi|sfo- ga- ro'il|mio duo- *|lo,|poi|ch'io son|so-|lo.|
w: ma que- sti|ven- ti|poi per lor|mer- ce- *|de,|ne|fa- ran|fe-|de.|
V:2
"^2)""^1)""^3)" E4 E4- | E2 E2 E4 | E2 F4 D2 | E4 A4 | =B2 c4 B2 | c8 :: F2 FD C2 F2 | A3 G A2 G2 | %8
w: Fra que|_ sti sas-|si'è luo- ghi'as-|pri'e sel-|vag- * *|gi,|o- ve del Sol non|pon- no'en- tra- r'i|
w: Ne fa-|* ran fe-|d'e por- te-|ran- no'il|pian- * *|to,|per l'a- ria'in- tor- no,|do- lo- ro- so|
w: Deh fos-|* s'io mor-|to che per|voi ser-|vi- * *|re,|pro- vo'un do- lor, ch'a-|van- za'o- gni mar-|
 ^F4 F4 | G2 A4 =B2 | c4 F4 | F3 F G4 | F4 E4 | D8 | z4 A4 | G4 F4- | F4 E4 | F8 :| %18
w: rag- gi,|a quer- cie|fag- gi|sfo- ga- ro'il|mio duo-|lo,|poi|ch'io son|_ so-|lo.|
w: tan- to,|sce- man- do'al-|quan- to|la pas- sion|ch'io por-|to,|deh|fos- s'io|_ mor-|to.|
w: ti- ri,|cer- can- do|di mo-|rir di pa-|sto'in pas-|so,|di|sas- so'in|_ sas-|so.|
V:3
"^4)""^1)""^5)" C,4 C,4- | C,2 C,2 C,4 | C,2 F,4 G,2 | A,4 F,4 | G,8 | C,8 :: F,2 F,G, A,2 B,2 | %7
w: Fra que-|* sti sas-|si'e luo- ghi'as-|pri'e sel-|vag-|gi,|o- ve del Sol non|
w: Di sas-|* so'in sas-|so'e d'un in|al- tro|lo-|co,|mi strug- go co- me|
 F,3 E, F,2 G,2 | D,4 D,4 |"^-natural" G,2 F,4 D,2 | C,4 B,,4 | B,3 A, G,4 | D,4 A,4 | D,8 | F,8 | %15
w: pon- no'en- tra- r'i|rag- gi,|a quer- cie|fag- gi|sfo- ga- ro'il|mio duo-|lo,|poi|
w: ce- r'ap- pres- so'il|fo- co,|pas- san- do'a|po- co'a|po- co'i fiu-|mi'e'i fon-|ti,|le|
 E,4 F,4 | C,8 | F,,8 :| %18
w: ch'io son|so-|lo.|
w: sel- ve'e'i|mon-|ti.|

